X: 782
M: C
L: 1/8
K: G
V: 1
d |\
|: (e/f/ |\
g)dBg dgdB | (g/f/e/d/ B)g Tf2 A(e/f/ |\
g)dBg dgdB | (c/B/A/G/ F)A G/G/G G :|
|: A |\
(BG)(BG) (BG) (B/c/d) | BG (B/c/d) (e/f/g) A2 |\
(BG) (B/c/d) (e/f/g) (f/g/a) | D2-DB G/G/G G :|
|: A |\
(g/f/e/d/ B)g dgdB | c/B/A/G/ FA G/G/G G :|
V: 2 clef=bass middle=d
z |\
g2g2 g2g2 | g2g2 a2a2 |\
g2g2 g2g2 | d2d2 G2G :|\
|: z |\
g2g2 g2g2 | g2g2
a2a2 |\
g2g2 g2g2 | d2d2 G2G :|\
|: z |\
g2g2 g2g2 | g2g2 a2a2 |\
g2g2 g2g2 |
d2d2 G2G :|\
|: z |\
g2g2 g2g2 | g2g2 a2a2 |\
g2g2 g2g2 | d2d2 G2G :|

